app/img/icons/effect.svg

<svg width="50" height="50" viewBox="0 0 50 50" fill="none" xmlns="http://www.w3.org/2000/svg">
<g clip-path="url(#clip0)">
<path d="M4.53128 28.1989C4.61917 25.4347 3.97464 24.3505 3.57424 20.0137C3.54495 19.9844 3.52542 19.9551 3.50589 19.9161C3.16409 19.0174 2.20706 18.5193 1.27932 18.744C0.361355 19.0467 -0.068333 20.2189 0.00979199 22.2114C0.12698 25.1026 1.95315 26.9975 4.53128 28.1989Z" fill="#0033A1"/>
<path d="M5.25395 18.4509C7.32426 14.7783 11.6602 9.24992 19.5118 8.03874C23.4961 7.42339 28.8184 5.71407 29.4336 1.74845C28.75 1.41636 28.0469 1.1331 27.3243 0.908445C25.0098 3.36986 21.1329 4.49313 17.8028 5.00104C12.4805 5.88989 7.84184 9.14248 5.20512 13.8504C5.16606 15.3449 5.16606 16.4681 5.25395 18.4509Z" fill="#0033A1"/>
<path d="M18.5157 46.9917C16.6797 46.4056 14.9512 45.5265 13.3985 44.3837V49.0917C13.3985 49.5801 13.7989 49.9805 14.2872 49.9805H26.7871C27.2754 49.9805 27.6758 49.5801 27.6758 49.0917V47.861C26.9532 47.1773 26.3086 46.4251 25.752 45.6047C24.7364 46.1614 23.6719 46.6205 22.5684 46.9917C21.25 47.441 19.8243 47.441 18.5157 46.9917Z" fill="#0033A1"/>
<path d="M35.2442 23.4128C35.4883 22.0747 35.5274 21.7133 35.6445 20.6779C32.1778 14.8858 26.3379 10.9201 19.6778 9.83595C10.2735 11.3402 6.41603 19.7402 5.57619 21.8891C5.99611 23.911 6.25002 25.9622 6.31838 28.0231C6.23049 29.0585 6.26955 30.1036 6.43557 31.1292C7.27541 36.4036 10.752 40.5842 15.2539 43.4949C16.4453 44.2567 17.7344 44.8623 19.082 45.3019C20.0293 45.6144 21.0449 45.6144 21.9922 45.3019C22.9688 44.9698 23.916 44.5693 24.8242 44.0809C22.7051 40.0176 22.666 35.1729 24.7363 31.0706C26.8067 26.9682 30.7129 24.1259 35.2442 23.4128Z" fill="#0033A1"/>
<path d="M17.5293 3.24284C20.2051 2.8326 23.1446 2.0512 25.2637 0.361417C23.0762 -0.0976568 22.8614 0.0195535 18.1543 0.0195535C17.6954 0.0293211 6.31842 0.673979 5.35162 10.5001C8.31061 6.58334 12.6758 3.98517 17.5293 3.24284Z" fill="#0033A1"/>
<path d="M39.8047 18.744C38.8672 18.5193 37.9102 19.0174 37.5684 19.9161C37.5489 19.9454 37.5294 19.9844 37.5001 20.0137C37.3926 21.2054 37.3829 21.4203 37.0899 23.2273C38.3497 23.1882 39.6094 23.3249 40.8399 23.618C41.2403 22.1138 41.2891 19.2421 39.8047 18.744Z" fill="#0033A1"/>
<path d="M27.4512 7.2084C26.2696 7.95074 24.9805 8.52702 23.6426 8.92749C28.5352 10.4903 32.8125 13.5768 35.8496 17.728C35.9082 16.1066 35.8985 14.8857 35.8692 13.8992C33.6621 11.008 30.7715 8.7126 27.4512 7.2084Z" fill="#0033A1"/>
<path d="M35.7618 11.008C35.6641 7.62847 33.8965 4.52239 31.0547 2.69586C30.6934 3.95588 29.9903 5.09868 29.0333 5.98752C31.5528 7.24753 33.8282 8.94708 35.7618 11.008Z" fill="#0033A1"/>
<path d="M25.9473 32.7114C23.8379 37.8003 25.3028 43.6608 29.5606 47.1576C33.8184 50.6544 39.8536 50.9572 44.4336 47.8999C49.0137 44.8427 51.0547 39.158 49.4629 33.8835C47.8711 28.6091 43.0176 25.0049 37.5196 24.9951C32.4512 24.9951 27.8907 28.0426 25.9473 32.7114ZM38.9747 26.8998C39.8731 27.0267 40.7618 27.2612 41.6016 27.5933C47.0411 29.8789 49.629 36.1203 47.4024 41.5901V41.5999L47.3926 41.6194C45.7227 45.6046 41.836 48.2027 37.5196 48.2027C33.2032 48.2027 29.3067 45.6143 27.6368 41.639C24.3653 34.3426 30.586 25.7277 38.9747 26.8998Z" fill="#BE9230"/>
<path d="M37.5 29C32.8131 29 29 32.8131 29 37.5C29 42.1868 32.8131 46 37.5 46C42.1869 46 46 42.1868 46 37.5C46 32.8131 42.1869 29 37.5 29ZM36.1261 41.7591L32.412 38.045L33.9862 36.4708L36.1262 38.6107L41.0928 33.6441L42.6671 35.2184L36.1261 41.7591Z" fill="#BE9230"/>
</g>
<defs>
<clipPath id="clip0">
<rect width="50" height="50" fill="white"/>
</clipPath>
</defs>
</svg>

<svg width="50" height="50" fill="none" xmlns="http://www.w3.org/2000/svg"><g clip-path="url(#clip0)"><path d="M4.531 28.199c.088-2.764-.556-3.849-.957-8.185a.352.352 0 01-.068-.098 1.903 1.903 0 00-2.227-1.172c-.918.303-1.347 1.475-1.27 3.467.118 2.892 1.944 4.787 4.522 5.988zM5.254 18.45c2.07-3.672 6.406-9.2 14.258-10.411 3.984-.616 9.306-2.325 9.922-6.29a15.062 15.062 0 00-2.11-.84C25.01 3.368 21.133 4.492 17.803 5a17.797 17.797 0 00-12.598 8.85c-.039 1.494-.039 2.617.049 4.6zM18.516 46.992a17.72 17.72 0 01-5.117-2.608v4.708c0 .488.4.889.888.889h12.5c.488 0 .889-.4.889-.89v-1.23a13.67 13.67 0 01-1.924-2.256 19.63 19.63 0 01-3.184 1.387 6.261 6.261 0 01-4.052 0z" fill="#0033A1"/><path d="M35.244 23.413c.244-1.338.283-1.7.4-2.735A22.892 22.892 0 0019.678 9.836C10.273 11.34 6.416 19.74 5.576 21.889c.42 2.022.674 4.073.742 6.134a12.722 12.722 0 00.118 3.106c.84 5.275 4.316 9.455 8.818 12.366a16.75 16.75 0 003.828 1.807 4.634 4.634 0 002.91 0 18.615 18.615 0 002.832-1.221 14.254 14.254 0 01-.088-13.01 14.24 14.24 0 0110.508-7.658zM17.53 3.243c2.675-.41 5.615-1.192 7.734-2.882C23.076-.098 22.86.02 18.154.02 17.695.03 6.318.674 5.352 10.5a18.814 18.814 0 0112.177-7.257zM39.805 18.744a1.91 1.91 0 00-2.237 1.172c-.02.03-.039.068-.068.098-.107 1.191-.117 1.406-.41 3.213 1.26-.039 2.52.098 3.75.391.4-1.504.45-4.376-1.035-4.874z" fill="#0033A1"/><path d="M27.451 7.208a15.554 15.554 0 01-3.808 1.72 24.3 24.3 0 0112.207 8.8c.058-1.621.048-2.842.02-3.829a22.006 22.006 0 00-8.419-6.69zM35.762 11.008a10.238 10.238 0 00-4.707-8.312 7.218 7.218 0 01-2.022 3.292 23.861 23.861 0 016.729 5.02z" fill="#0033A1"/><path d="M25.947 32.711a12.493 12.493 0 003.614 14.447 12.5 12.5 0 0019.902-13.274 12.5 12.5 0 00-11.943-8.889 12.532 12.532 0 00-11.573 7.716zM38.975 26.9c.898.127 1.787.361 2.627.693 5.44 2.286 8.027 8.527 5.8 13.997v.01l-.01.02a10.709 10.709 0 01-19.755.019c-3.272-7.296 2.949-15.911 11.338-14.74z" fill="#BE9230"/><path d="M37.5 29c-4.687 0-8.5 3.813-8.5 8.5 0 4.687 3.813 8.5 8.5 8.5 4.687 0 8.5-3.813 8.5-8.5 0-4.687-3.813-8.5-8.5-8.5zm-1.374 12.76l-3.714-3.715 1.574-1.574 2.14 2.14 4.967-4.967 1.574 1.574-6.54 6.541z" fill="#BE9230"/></g><defs><clipPath id="clip0"><path fill="#fff" d="M0 0h50v50H0z"/></clipPath></defs></svg>
